X: 1614
T: Spellan's Delight
M:C|
L:1/8
R:Hornpipe
B:O'Neill's 1614
N:"Collected by J.O'Neill."
Z:Transcribed by Michael D. Long, 10/10/98
K:A
E2|(3(AcA) E>c d>BG>B|A>c (3(efg) a>ec>f|d>bc>a B>ge>g|a>ec>e f>dB>G|
(3(AcA) E>c d>BG>B|a>gb>g a>ec>e|d>ce>d f>ea>g|b>ge>g a2:|\
e2|a>be>g a>fc>f|(3(def) (3(edc) d>BG>B|
c>ea>c' d'>c'b>a|g>ba>f e2 f>g|a>gb>g a>ec>e|d>bB>g a>ec>e|\
d>ce>d f>ea>g|b>ge>g a2:|


